X:76
T:Brinny O Linn
T:Irish? -
Z:Jack Campin - http://www.campin.me.uk
S:Blaikie MS (NLS MS.1578) p23, Blaikie #70
M:6/8
L:1/8
V:1 midi program 1 74
V:2 midi program 1 46 bass middle = d transpose -24
Q:3/8=90
N:the sharp in bar 6 in the bass is written in lighter ink
K:E Minor
[V:1] EEB BAB|GFG  E2 E|FAA AFA|FEF D2D|
[V:2] E3  e3 |B2z  e3  |d3  d3 |A2z d3 |
%
[V:1] G2G AAA|Bcd  e2^c|ded BAB|GEE E3|]
[V:2] g3  d3 |gab ^c'2a|b3  B3 |e2e E3|]
W:Transcription (c) Jack Campin 2009, no mirroring or republication without permission

